source/img/insta.svg

<svg width="23" height="22" viewBox="0 0 23 22" fill="none" xmlns="http://www.w3.org/2000/svg">
<path d="M22.599 12.5999C22.599 10.1999 22.299 7.7999 22.299 5.4999C22.299 4.6999 22.199 3.99991 22.099 3.19991C21.999 2.89991 21.999 2.4999 21.899 2.0999C21.599 1.8999 21.699 1.4999 21.399 1.2999C20.999 1.0999 20.199 1.1999 19.699 1.0999C18.999 1.0999 18.399 0.999902 17.799 0.899902C15.899 0.799902 13.799 0.799904 11.799 0.799904C9.79901 0.799904 7.79901 0.699902 6.09901 0.399902H3.89901C3.79901 0.399902 3.79901 0.499905 3.69901 0.499905C3.09901 0.499905 2.59901 0.699904 2.09901 0.799904C1.89901 0.899904 1.69901 0.999903 1.39901 1.0999C1.29901 1.2999 0.899007 1.1999 0.799007 1.4999C0.599007 1.6999 0.999007 1.9999 0.799007 2.0999V2.9999C0.999007 3.0999 0.799009 3.5999 0.899009 3.7999V4.7999C0.899009 6.0999 0.999008 7.1999 0.999008 8.4999C1.49901 11.2999 1.39901 14.9999 1.09901 17.8999C1.29901 18.4999 1.49901 18.9999 1.59901 19.5999C1.89901 20.0999 1.89901 20.6999 2.29901 21.0999C2.79901 21.2999 3.49901 21.2999 4.19901 21.2999C4.59901 21.3999 4.89901 21.5999 5.29901 21.5999C8.09901 21.3999 10.799 21.3999 13.699 21.3999C16.399 21.5999 19.499 21.5999 21.999 21.1999C22.199 21.0999 22.099 20.6999 22.199 20.3999C22.099 19.9999 22.399 19.9999 22.399 19.5999C22.599 17.4999 22.599 15.0999 22.599 12.5999ZM9.59901 6.3999C10.399 6.1999 11.099 6.0999 11.999 6.0999C12.699 6.1999 13.299 6.3999 13.899 6.5999C13.999 6.7999 13.699 7.0999 14.099 7.2999C14.199 7.2999 14.199 7.2999 14.299 7.3999C14.699 7.3999 15.099 7.5999 15.399 7.7999C15.899 7.8999 15.899 8.29991 16.499 8.19991C16.399 8.39991 16.399 8.6999 16.399 8.9999C16.699 10.1999 16.899 11.7999 16.699 13.2999C16.499 13.4999 16.499 13.6999 16.399 13.9999C16.099 14.2999 15.899 14.7999 15.599 15.0999C15.499 15.2999 15.299 15.4999 15.099 15.5999C14.999 15.7999 14.899 16.0999 14.599 16.0999C14.299 16.2999 13.999 16.0999 13.799 15.9999C13.399 16.1999 12.899 16.2999 12.599 16.5999C11.799 16.4999 10.999 16.3999 10.199 16.2999C9.99901 16.1999 9.69901 15.9999 9.39901 15.9999C9.19901 15.7999 8.89901 15.5999 8.59901 15.4999C8.49901 15.3999 8.29901 15.3999 8.09901 15.2999C7.89901 15.2999 7.89901 15.0999 7.59901 15.0999C7.49901 14.6999 7.19901 14.4999 7.09901 13.9999C6.89901 13.6999 6.79901 13.1999 6.59901 12.7999C6.59901 11.3999 6.69901 10.0999 6.99901 8.9999C7.29901 8.3999 7.79901 7.8999 8.09901 7.2999C8.29901 7.2999 8.49901 7.1999 8.49901 6.9999C8.79901 7.0999 8.89901 6.8999 9.19901 6.8999C9.39901 6.8999 9.39901 6.5999 9.59901 6.3999ZM7.89901 3.69991C7.79901 3.39991 7.79901 2.9999 7.79901 2.5999C7.79901 2.2999 8.09901 2.2999 8.09901 2.0999C8.09901 1.9999 7.99901 1.9999 7.89901 1.9999C7.99901 1.8999 8.59901 1.8999 8.69901 1.9999C8.79901 2.4999 8.29901 2.49991 8.19901 2.69991C8.19901 2.89991 8.49901 2.6999 8.69901 2.7999C8.69901 3.6999 8.59901 4.2999 8.69901 4.9999H8.19901C8.19901 5.1999 8.39901 5.19991 8.69901 5.19991C8.59901 5.49991 8.79901 5.5999 8.79901 5.7999C8.59901 5.9999 8.09901 5.7999 7.69901 5.8999C7.69901 5.2999 7.99901 4.49991 7.89901 3.69991ZM7.19901 2.0999C7.29901 2.0999 7.29901 2.09991 7.39901 2.19991C7.59901 2.49991 7.39901 2.8999 7.29901 3.0999C7.09901 2.8999 7.29901 2.3999 7.19901 2.0999ZM7.39901 3.8999C7.29901 3.7999 7.19901 3.6999 7.19901 3.3999C7.39901 3.4999 7.39901 3.6999 7.39901 3.8999ZM7.39901 5.2999C7.29901 5.3999 7.29901 5.2999 7.29901 5.0999C7.39901 4.9999 7.39901 5.1999 7.39901 5.2999ZM7.19901 5.4999C7.39901 5.4999 7.29901 5.69991 7.39901 5.69991C7.39901 5.89991 7.09901 5.8999 6.99901 5.7999C7.09901 5.6999 7.19901 5.5999 7.19901 5.4999ZM4.89901 4.2999C4.89901 4.1999 4.89901 4.0999 4.79901 4.0999C4.69901 3.3999 4.89901 2.6999 4.79901 2.0999C5.09901 1.8999 5.59901 2.0999 5.89901 1.9999V3.0999C5.79901 3.1999 5.69901 3.19991 5.49901 3.19991C5.39901 3.49991 5.79901 3.2999 5.89901 3.4999C5.89901 4.3999 5.79901 5.2999 6.09901 5.8999C5.49901 5.7999 5.19901 5.9999 4.69901 5.9999C4.79901 5.3999 4.69901 4.5999 5.19901 4.3999C5.19901 4.2999 4.89901 4.3999 4.89901 4.2999ZM4.39901 4.2999C4.19901 4.2999 4.19901 3.79991 4.29901 3.69991C4.59901 3.69991 4.49901 4.1999 4.39901 4.2999ZM4.19901 5.2999C4.29901 4.9999 4.19901 4.9999 4.29901 4.5999C4.49901 4.5999 4.49901 5.3999 4.19901 5.2999ZM4.39901 3.19991C4.09901 3.29991 4.09901 2.8999 4.19901 2.7999C4.49901 2.7999 4.59901 3.09991 4.39901 3.19991ZM4.39901 2.0999C4.39901 2.2999 4.29901 2.2999 4.29901 2.3999C4.09901 2.3999 4.19901 2.19991 4.09901 2.19991C4.19901 2.09991 4.29901 2.0999 4.39901 2.0999ZM4.19901 5.7999C4.29901 5.7999 4.29901 6.0999 4.09901 5.9999C4.19901 5.9999 4.19901 5.8999 4.19901 5.7999ZM3.49901 2.0999C3.49901 2.3999 3.09901 2.3999 3.09901 2.0999H3.49901ZM2.49901 2.19991C2.49901 2.39991 2.19901 2.3999 2.09901 2.5999C1.89901 2.3999 2.19901 2.09991 2.49901 2.19991ZM2.09901 2.8999C2.29901 2.6999 2.59901 2.4999 2.79901 2.2999C2.79901 2.1999 2.89901 2.1999 2.89901 2.0999H3.09901C3.19901 2.4999 2.79901 2.3999 2.79901 2.5999C2.79901 2.6999 2.69901 2.6999 2.69901 2.7999C2.69901 3.0999 2.79901 3.3999 2.79901 3.7999C2.49901 3.7999 2.49901 4.0999 2.19901 3.9999C2.19901 3.5999 1.99901 3.3999 2.09901 2.8999ZM2.19901 6.19991V4.5999C2.39901 4.3999 2.59901 4.1999 2.79901 4.0999C3.09901 4.5999 2.99901 5.4999 3.29901 5.9999C2.89901 6.0999 2.49901 6.09991 2.19901 6.19991ZM20.399 17.2999C20.299 18.2999 20.199 19.2999 19.999 20.0999C17.099 20.1999 13.999 20.0999 11.099 20.2999C10.899 20.2999 10.799 20.2999 10.899 20.0999C10.599 20.0999 10.599 20.2999 10.399 20.2999C10.599 19.9999 10.799 19.3999 10.599 18.9999C9.79901 18.9999 9.79901 19.7999 9.49901 20.2999C8.79901 20.1999 8.39901 20.3999 7.69901 20.3999C7.89901 19.6999 8.39901 19.3999 8.59901 18.6999C8.19901 18.1999 7.59901 18.7999 7.39901 19.1999C7.19901 19.6999 6.79901 19.9999 6.59901 20.4999H5.59901C5.79901 19.9999 6.09901 19.5999 6.39901 19.0999C6.59901 18.5999 6.99901 18.3999 7.09901 17.6999C6.89901 17.3999 6.69901 17.6999 6.39901 17.6999C6.29901 17.8999 6.09901 17.9999 5.99901 18.1999C5.79901 18.5999 5.49901 18.8999 5.29901 19.2999C5.09901 19.4999 4.99901 19.2999 4.79901 19.4999C4.39901 19.7999 4.19901 20.1999 3.79901 20.4999C3.59901 20.3999 3.79901 20.0999 3.99901 20.0999C3.99901 19.8999 3.89901 19.5999 4.09901 19.4999C4.19901 19.0999 4.29901 18.8999 4.49901 18.5999C4.59901 17.8999 4.99901 17.3999 5.19901 16.6999C4.59901 16.7999 4.49901 17.2999 4.19901 17.6999C3.99901 18.0999 3.69901 18.4999 3.49901 18.9999C3.29901 18.8999 3.49901 18.3999 3.39901 18.1999C3.49901 17.5999 3.69901 17.0999 3.79901 16.4999C3.89901 16.2999 3.99901 15.9999 3.99901 15.6999C4.19901 15.4999 3.99901 15.0999 3.89901 14.8999C3.69901 14.8999 3.49901 14.9999 3.39901 15.1999C3.19901 15.1999 3.19901 15.6999 3.09901 15.4999C3.09901 12.8999 2.59901 10.6999 2.59901 8.0999C2.59901 7.7999 2.39901 7.6999 2.39901 7.3999C3.99901 7.3999 5.49901 7.4999 7.19901 7.5999C7.09901 7.6999 6.99901 7.8999 6.89901 7.9999C6.79901 8.0999 6.69901 8.1999 6.49901 8.2999C5.89901 9.9999 5.49901 12.2999 5.89901 14.4999C6.09901 15.0999 6.49901 15.4999 6.89901 15.8999C7.79901 16.3999 8.49901 16.9999 9.39901 17.5999C11.099 17.9999 13.199 17.9999 14.899 17.5999C15.099 17.4999 15.399 17.3999 15.599 17.1999C16.999 15.9999 18.399 14.6999 18.599 12.2999V10.8999C18.399 9.2999 17.899 7.9999 16.899 7.2999C17.199 7.0999 17.999 7.2999 18.599 7.3999C18.799 7.3999 18.999 7.3999 19.299 7.3999C19.699 7.3999 20.199 7.2999 20.699 7.3999C20.799 7.5999 20.799 7.89991 20.899 8.19991C20.799 9.89991 20.699 11.4999 20.699 13.2999C20.799 13.7999 20.799 14.2999 20.899 14.6999C20.699 15.4999 20.599 16.3999 20.399 17.2999ZM20.799 6.0999C20.199 5.9999 19.599 5.79991 18.899 5.69991C18.999 5.39991 19.699 5.6999 19.899 5.4999C20.299 5.2999 20.199 4.5999 20.199 3.9999C20.199 3.6999 20.299 3.3999 20.299 2.8999C19.899 1.8999 18.499 2.4999 17.399 2.3999C17.199 3.0999 16.899 4.1999 17.099 5.0999C17.299 5.5999 18.099 5.3999 18.599 5.5999C18.499 5.8999 17.899 5.69991 17.599 5.69991C17.299 5.59991 16.899 5.5999 16.599 5.4999C14.299 5.5999 12.299 5.49991 10.099 5.69991C10.199 4.49991 10.199 3.1999 9.99901 2.0999H13.099C12.799 2.4999 12.199 2.5999 11.799 2.8999C11.399 3.0999 10.899 3.3999 10.699 3.7999C10.899 3.8999 11.199 3.5999 11.499 3.3999C11.899 3.2999 11.999 2.9999 12.299 2.8999C12.699 2.4999 13.399 2.2999 13.999 1.9999C14.399 1.9999 14.699 1.9999 14.999 2.0999C16.299 2.0999 17.499 2.19991 18.799 2.19991C19.399 2.29991 20.299 2.2999 20.799 2.4999C20.899 2.7999 20.999 3.0999 21.099 3.3999C20.999 4.3999 20.799 5.1999 20.799 6.0999ZM14.899 2.3999C14.999 2.2999 14.899 2.2999 14.899 2.3999V2.3999ZM14.899 2.3999C14.399 2.5999 13.899 2.6999 13.499 3.0999C13.999 2.8999 14.599 2.7999 14.899 2.3999ZM15.999 2.9999C16.099 2.8999 15.999 2.8999 15.999 2.9999V2.9999ZM14.199 3.8999C14.899 3.6999 15.399 3.2999 15.899 2.9999C15.499 2.9999 15.299 3.2999 14.899 3.3999C14.799 3.5999 14.399 3.5999 14.199 3.8999ZM13.499 3.0999C13.399 3.0999 13.599 3.1999 13.499 3.0999V3.0999ZM12.899 3.69991C12.999 3.59991 12.899 3.59991 12.899 3.69991V3.69991ZM12.799 3.7999C12.899 3.7999 12.899 3.6999 12.799 3.7999C12.799 3.6999 12.799 3.6999 12.799 3.7999ZM12.699 3.7999C12.799 3.7999 12.799 3.7999 12.699 3.7999C12.699 3.6999 12.699 3.7999 12.699 3.7999ZM11.899 4.3999C12.199 4.2999 12.499 4.0999 12.699 3.7999C12.399 3.9999 12.099 4.1999 11.899 4.3999ZM14.199 5.3999C14.699 5.3999 14.899 4.9999 15.399 4.8999C15.699 4.5999 16.199 4.4999 16.399 4.0999C15.799 4.0999 15.599 4.4999 15.199 4.5999C14.899 4.9999 14.399 5.0999 14.199 5.3999ZM11.899 4.3999C11.599 4.3999 11.899 4.6999 11.899 4.3999V4.3999ZM11.299 4.7999C11.399 4.7999 11.499 4.7999 11.299 4.7999C11.399 4.6999 11.299 4.7999 11.299 4.7999ZM14.199 5.3999C13.999 5.4999 14.199 5.4999 14.199 5.3999V5.3999ZM12.999 7.19991C12.799 6.99991 12.299 6.9999 11.999 6.7999C11.299 6.7999 10.799 6.8999 10.299 6.9999C9.99901 7.1999 9.69901 7.2999 9.39901 7.4999C9.09901 7.6999 8.99901 7.8999 8.59901 7.9999C8.39901 8.1999 8.19901 8.4999 7.89901 8.5999C7.89901 8.7999 7.69901 8.8999 7.59901 8.9999C7.49901 9.09991 7.49901 9.2999 7.39901 9.3999C7.39901 9.4999 7.39901 9.69991 7.29901 9.69991C7.39901 11.1999 7.59901 12.5999 7.99901 13.8999C8.29901 14.4999 8.99901 14.6999 9.39901 15.1999C9.99901 15.4999 10.699 15.5999 11.499 15.6999C11.799 15.5999 12.099 15.5999 12.399 15.5999C13.599 15.3999 14.499 14.8999 15.199 14.1999C15.299 13.8999 15.499 13.6999 15.699 13.4999C15.399 12.7999 15.999 12.3999 16.199 11.8999C16.199 10.5999 15.999 9.3999 15.599 8.4999C15.299 7.8999 14.699 7.6999 14.199 7.3999C14.099 7.3999 13.999 7.3999 13.999 7.2999C13.799 7.1999 13.299 7.09991 12.999 7.19991ZM9.59901 11.5999C9.49901 11.4999 9.49901 11.3999 9.39901 11.1999C9.69901 11.0999 9.59901 11.3999 9.59901 11.5999ZM9.69901 11.8999C9.69901 11.7999 9.79901 11.8999 9.69901 11.8999C9.69901 12.0999 9.69901 11.9999 9.69901 11.8999ZM10.099 9.7999C10.099 9.6999 10.199 9.7999 10.099 9.7999C10.199 9.8999 10.099 9.8999 10.099 9.7999ZM11.799 7.69991C11.599 7.99991 11.799 8.2999 11.899 8.4999C11.599 8.4999 11.299 7.69991 11.799 7.69991ZM12.199 11.5999C12.099 11.5999 12.199 11.5999 12.199 11.5999C12.299 11.5999 12.199 11.6999 12.199 11.5999ZM12.899 14.4999C12.899 14.3999 12.999 14.4999 13.099 14.4999C13.099 14.5999 12.899 14.5999 12.899 14.4999ZM15.099 11.9999C14.899 11.8999 14.999 12.1999 14.699 12.1999C14.799 11.9999 14.799 11.8999 14.899 11.6999C15.099 11.6999 15.199 11.7999 15.099 11.9999ZM13.999 8.19991C14.199 8.29991 14.399 8.3999 14.599 8.5999C14.699 8.7999 14.799 8.9999 14.999 9.0999C15.099 9.8999 15.199 10.5999 15.199 11.4999C14.899 11.5999 14.799 11.7999 14.499 11.8999C13.699 11.8999 13.099 11.6999 12.599 11.3999C12.399 11.0999 12.199 10.8999 12.099 10.5999V9.4999C12.299 9.2999 12.399 9.0999 12.599 8.8999C12.799 8.7999 13.099 8.6999 13.099 8.2999C13.099 8.1999 12.999 8.1999 12.999 8.0999C13.199 8.0999 13.199 8.2999 13.399 8.2999C13.599 8.2999 13.699 8.09991 13.999 8.19991Z" fill="black"/>
</svg>

<svg width="23" height="22" fill="none" xmlns="http://www.w3.org/2000/svg"><path d="M22.6 12.6c0-2.4-.3-4.8-.3-7.1 0-.8-.1-1.5-.2-2.3-.1-.3-.1-.7-.2-1.1-.3-.2-.2-.6-.5-.8-.4-.2-1.2-.1-1.7-.2-.7 0-1.3-.1-1.9-.2-1.9-.1-4-.1-6-.1S7.8.7 6.1.4H3.9c-.1 0-.1.1-.2.1-.6 0-1.1.2-1.6.3-.2.1-.4.2-.7.3-.1.2-.5.1-.6.4-.2.2.2.5 0 .6V3c.2.1 0 .6.1.8v1c0 1.3.1 2.4.1 3.7.5 2.8.4 6.5.1 9.4.2.6.4 1.1.5 1.7.3.5.3 1.1.7 1.5.5.2 1.2.2 1.9.2.4.1.7.3 1.1.3 2.8-.2 5.5-.2 8.4-.2 2.7.2 5.8.2 8.3-.2.2-.1.1-.5.2-.8-.1-.4.2-.4.2-.8.2-2.1.2-4.5.2-7zm-13-6.2c.8-.2 1.5-.3 2.4-.3.7.1 1.3.3 1.9.5.1.2-.2.5.2.7.1 0 .1 0 .2.1.4 0 .8.2 1.1.4.5.1.5.5 1.1.4-.1.2-.1.5-.1.8.3 1.2.5 2.8.3 4.3-.2.2-.2.4-.3.7-.3.3-.5.8-.8 1.1-.1.2-.3.4-.5.5-.1.2-.2.5-.5.5-.3.2-.6 0-.8-.1-.4.2-.9.3-1.2.6l-2.4-.3c-.2-.1-.5-.3-.8-.3-.2-.2-.5-.4-.8-.5-.1-.1-.3-.1-.5-.2-.2 0-.2-.2-.5-.2-.1-.4-.4-.6-.5-1.1-.2-.3-.3-.8-.5-1.2 0-1.4.1-2.7.4-3.8.3-.6.8-1.1 1.1-1.7.2 0 .4-.1.4-.3.3.1.4-.1.7-.1.2 0 .2-.3.4-.5zM7.9 3.7c-.1-.3-.1-.7-.1-1.1 0-.3.3-.3.3-.5C8.1 2 8 2 7.9 2c.1-.1.7-.1.8 0 .1.5-.4.5-.5.7 0 .2.3 0 .5.1 0 .9-.1 1.5 0 2.2h-.5c0 .2.2.2.5.2-.1.3.1.4.1.6-.2.2-.7 0-1.1.1 0-.6.3-1.4.2-2.2zm-.7-1.6c.1 0 .1 0 .2.1.2.3 0 .7-.1.9-.2-.2 0-.7-.1-1zm.2 1.8c-.1-.1-.2-.2-.2-.5.2.1.2.3.2.5zm0 1.4c-.1.1-.1 0-.1-.2.1-.1.1.1.1.2zm-.2.2c.2 0 .1.2.2.2 0 .2-.3.2-.4.1.1-.1.2-.2.2-.3zM4.9 4.3c0-.1 0-.2-.1-.2-.1-.7.1-1.4 0-2 .3-.2.8 0 1.1-.1v1.1c-.1.1-.2.1-.4.1-.1.3.3.1.4.3 0 .9-.1 1.8.2 2.4-.6-.1-.9.1-1.4.1.1-.6 0-1.4.5-1.6 0-.1-.3 0-.3-.1zm-.5 0c-.2 0-.2-.5-.1-.6.3 0 .2.5.1.6zm-.2 1c.1-.3 0-.3.1-.7.2 0 .2.8-.1.7zm.2-2.1c-.3.1-.3-.3-.2-.4.3 0 .4.3.2.4zm0-1.1c0 .2-.1.2-.1.3-.2 0-.1-.2-.2-.2.1-.1.2-.1.3-.1zm-.2 3.7c.1 0 .1.3-.1.2.1 0 .1-.1.1-.2zm-.7-3.7c0 .3-.4.3-.4 0h.4zm-1 .1c0 .2-.3.2-.4.4-.2-.2.1-.5.4-.4zm-.4.7c.2-.2.5-.4.7-.6 0-.1.1-.1.1-.2h.2c.1.4-.3.3-.3.5 0 .1-.1.1-.1.2 0 .3.1.6.1 1-.3 0-.3.3-.6.2 0-.4-.2-.6-.1-1.1zm.1 3.3V4.6c.2-.2.4-.4.6-.5.3.5.2 1.4.5 1.9-.4.1-.8.1-1.1.2zm18.2 11.1c-.1 1-.2 2-.4 2.8-2.9.1-6 0-8.9.2-.2 0-.3 0-.2-.2-.3 0-.3.2-.5.2.2-.3.4-.9.2-1.3-.8 0-.8.8-1.1 1.3-.7-.1-1.1.1-1.8.1.2-.7.7-1 .9-1.7-.4-.5-1 .1-1.2.5-.2.5-.6.8-.8 1.3h-1c.2-.5.5-.9.8-1.4.2-.5.6-.7.7-1.4-.2-.3-.4 0-.7 0-.1.2-.3.3-.4.5-.2.4-.5.7-.7 1.1-.2.2-.3 0-.5.2-.4.3-.6.7-1 1-.2-.1 0-.4.2-.4 0-.2-.1-.5.1-.6.1-.4.2-.6.4-.9.1-.7.5-1.2.7-1.9-.6.1-.7.6-1 1-.2.4-.5.8-.7 1.3-.2-.1 0-.6-.1-.8.1-.6.3-1.1.4-1.7.1-.2.2-.5.2-.8.2-.2 0-.6-.1-.8-.2 0-.4.1-.5.3-.2 0-.2.5-.3.3 0-2.6-.5-4.8-.5-7.4 0-.3-.2-.4-.2-.7 1.6 0 3.1.1 4.8.2-.1.1-.2.3-.3.4-.1.1-.2.2-.4.3-.6 1.7-1 4-.6 6.2.2.6.6 1 1 1.4.9.5 1.6 1.1 2.5 1.7 1.7.4 3.8.4 5.5 0 .2-.1.5-.2.7-.4 1.4-1.2 2.8-2.5 3-4.9v-1.4c-.2-1.6-.7-2.9-1.7-3.6.3-.2 1.1 0 1.7.1h.7c.4 0 .9-.1 1.4 0 .1.2.1.5.2.8-.1 1.7-.2 3.3-.2 5.1.1.5.1 1 .2 1.4-.2.8-.3 1.7-.5 2.6zm.4-11.2c-.6-.1-1.2-.3-1.9-.4.1-.3.8 0 1-.2.4-.2.3-.9.3-1.5 0-.3.1-.6.1-1.1-.4-1-1.8-.4-2.9-.5-.2.7-.5 1.8-.3 2.7.2.5 1 .3 1.5.5-.1.3-.7.1-1 .1-.3-.1-.7-.1-1-.2-2.3.1-4.3 0-6.5.2.1-1.2.1-2.5-.1-3.6h3.1c-.3.4-.9.5-1.3.8-.4.2-.9.5-1.1.9.2.1.5-.2.8-.4.4-.1.5-.4.8-.5.4-.4 1.1-.6 1.7-.9.4 0 .7 0 1 .1 1.3 0 2.5.1 3.8.1.6.1 1.5.1 2 .3l.3.9c-.1 1-.3 1.8-.3 2.7zm-5.9-3.7c.1-.1 0-.1 0 0zm0 0c-.5.2-1 .3-1.4.7.5-.2 1.1-.3 1.4-.7zM16 3c.1-.1 0-.1 0 0zm-1.8.9c.7-.2 1.2-.6 1.7-.9-.4 0-.6.3-1 .4-.1.2-.5.2-.7.5zm-.7-.8c-.1 0 .1.1 0 0zm-.6.6c.1-.1 0-.1 0 0zm-.1.1c.1 0 .1-.1 0 0 0-.1 0-.1 0 0zm-.1 0c.1 0 .1 0 0 0 0-.1 0 0 0 0zm-.8.6c.3-.1.6-.3.8-.6-.3.2-.6.4-.8.6zm2.3 1c.5 0 .7-.4 1.2-.5.3-.3.8-.4 1-.8-.6 0-.8.4-1.2.5-.3.4-.8.5-1 .8zm-2.3-1c-.3 0 0 .3 0 0zm-.6.4c.1 0 .2 0 0 0 .1-.1 0 0 0 0zm2.9.6c-.2.1 0 .1 0 0zM13 7.2c-.2-.2-.7-.2-1-.4-.7 0-1.2.1-1.7.2-.3.2-.6.3-.9.5-.3.2-.4.4-.8.5-.2.2-.4.5-.7.6 0 .2-.2.3-.3.4-.1.1-.1.3-.2.4 0 .1 0 .3-.1.3.1 1.5.3 2.9.7 4.2.3.6 1 .8 1.4 1.3.6.3 1.3.4 2.1.5.3-.1.6-.1.9-.1 1.2-.2 2.1-.7 2.8-1.4.1-.3.3-.5.5-.7-.3-.7.3-1.1.5-1.6 0-1.3-.2-2.5-.6-3.4-.3-.6-.9-.8-1.4-1.1-.1 0-.2 0-.2-.1-.2-.1-.7-.2-1-.1zm-3.4 4.4c-.1-.1-.1-.2-.2-.4.3-.1.2.2.2.4zm.1.3c0-.1.1 0 0 0 0 .2 0 .1 0 0zm.4-2.1c0-.1.1 0 0 0 .1.1 0 .1 0 0zm1.7-2.1c-.2.3 0 .6.1.8-.3 0-.6-.8-.1-.8zm.4 3.9c-.1 0 0 0 0 0 .1 0 0 .1 0 0zm.7 2.9c0-.1.1 0 .2 0 0 .1-.2.1-.2 0zm2.2-2.5c-.2-.1-.1.2-.4.2.1-.2.1-.3.2-.5.2 0 .3.1.2.3zM14 8.2c.2.1.4.2.6.4.1.2.2.4.4.5.1.8.2 1.5.2 2.4-.3.1-.4.3-.7.4-.8 0-1.4-.2-1.9-.5-.2-.3-.4-.5-.5-.8V9.5c.2-.2.3-.4.5-.6.2-.1.5-.2.5-.6 0-.1-.1-.1-.1-.2.2 0 .2.2.4.2s.3-.2.6-.1z" fill="#000"/></svg>
